ExtensionSource/app/images/general-icon.svg

<svg id="eJWsp012tmK1" xmlns="http://www.w3.org/2000/svg" xmlns:xlink="http://www.w3.org/1999/xlink" viewBox="0 0 14 15" shape-rendering="geometricPrecision" text-rendering="geometricPrecision"><path d="M8.61384,8.90179c.44643-.44643.66964-.98512.66964-1.61608s-.22321-1.16964-.66964-1.61607-.98512-.66964-1.61607-.66964-1.16964.22321-1.61607.66964-.66965.98512-.66965,1.61607.22322,1.16965.66965,1.61608.98512.66964,1.61607.66964s1.16964-.22322,1.61607-.66964ZM13.8549,6.3125v1.98214c0,.07143-.0238.13988-.0714.20536s-.1072.10417-.1786.11607l-1.6518.25c-.1131.32143-.2291.59226-.3482.8125.2083.29762.5268.70833.9554,1.23213.0595.0714.0893.1458.0893.2232s-.0268.1459-.0804.2054c-.1607.2202-.4554.5417-.8839.9643s-.7084.6339-.8393.6339c-.0714,0-.1488-.0268-.2322-.0804l-1.2321-.9642c-.26191.1369-.53274.25-.8125.3392-.09524.8096-.18155,1.3631-.25893,1.6608-.04167.1666-.14881.25-.32143.25h-1.98214c-.08334,0-.15774-.0268-.22322-.0804-.05952-.0476-.09226-.1101-.09821-.1875l-.25-1.6429c-.29167-.0952-.55953-.2053-.80357-.3303l-1.25893.9553c-.05953.0536-.13393.0804-.22322.0804-.08333,0-.15773-.0327-.22321-.0982-.75-.6786-1.24107-1.1786-1.47322-1.5-.04166-.0595-.0625-.128-.0625-.2054c0-.0714.02381-.1399.07143-.2053.08929-.125.24108-.3215.45536-.5893.21429-.2738.375-.48513.48214-.63394-.16071-.29762-.28273-.59227-.36607-.88393L0.399554,8.58036c-.077381-.01191-.139881-.04762-.1875-.10715-.047619-.06547-.071429-.1369-.071429-.21428v-1.98214c0-.07143.02381-.13989.071429-.20536s.104166-.10417.169642-.11607l1.660714-.25c.08333-.27381.19941-.54762.34821-.82143-.23809-.33929-.55654-.75-.95535-1.23215-.05953-.07142-.08929-.14285-.08929-.21428c0-.05952.02679-.12798.08036-.20536.15476-.21428.44643-.53274.875-.95536.43452-.42857.71726-.64285.84821-.64285.07738,0,.15477.02976.23215.08928l1.23214.95536c.2619-.1369.53274-.25.8125-.33929.09524-.80952.18155-1.36309.25893-1.660709.04166-.166667.14881-.25.32143-.25h1.98214c.08333,0,.15476.026786.21428.080357.06548.047619.1012.110119.10715.1875l.25,1.642852c.29167.09524.55952.20536.80357.33036l1.26786-.95536c.0536-.05357.125-.08035.2143-.08035.0774,0,.1518.02976.2232.08928.7679.70834,1.2589,1.21429,1.4732,1.51786.0417.04762.0625.1131.0625.19643c0,.07143-.0238.13988-.0714.20536-.0893.125-.2411.3244-.4554.59821-.2143.26786-.375.47619-.4821.625.1547.29762.2768.58929.3661.875l1.6339.25c.0774.01191.1399.0506.1875.11607.0476.05953.0714.12798.0714.20536Z" fill="#fafafa"/></svg>

<svg width="14" height="15" viewBox="0 0 14 15" fill="none" xmlns="http://www.w3.org/2000/svg">
<path d="M8.61384 8.90179C9.06027 8.45536 9.28348 7.91667 9.28348 7.28571C9.28348 6.65476 9.06027 6.11607 8.61384 5.66964C8.16741 5.22321 7.62872 5 6.99777 5C6.36682 5 5.82813 5.22321 5.3817 5.66964C4.93527 6.11607 4.71205 6.65476 4.71205 7.28571C4.71205 7.91667 4.93527 8.45536 5.3817 8.90179C5.82813 9.34821 6.36682 9.57143 6.99777 9.57143C7.62872 9.57143 8.16741 9.34821 8.61384 8.90179ZM13.8549 6.3125V8.29464C13.8549 8.36607 13.8311 8.43452 13.7835 8.5C13.7359 8.56548 13.6763 8.60417 13.6049 8.61607L11.9531 8.86607C11.84 9.1875 11.724 9.45833 11.6049 9.67857C11.8132 9.97619 12.1317 10.3869 12.5603 10.9107C12.6198 10.9821 12.6496 11.0565 12.6496 11.1339C12.6496 11.2113 12.6228 11.2798 12.5692 11.3393C12.4085 11.5595 12.1138 11.881 11.6853 12.3036C11.2567 12.7262 10.9769 12.9375 10.846 12.9375C10.7746 12.9375 10.6972 12.9107 10.6138 12.8571L9.3817 11.8929C9.11979 12.0298 8.84896 12.1429 8.5692 12.2321C8.47396 13.0417 8.38765 13.5952 8.31027 13.8929C8.2686 14.0595 8.16146 14.1429 7.98884 14.1429H6.0067C5.92336 14.1429 5.84896 14.1161 5.78348 14.0625C5.72396 14.0149 5.69122 13.9524 5.68527 13.875L5.43527 12.2321C5.1436 12.1369 4.87574 12.0268 4.6317 11.9018L3.37277 12.8571C3.31324 12.9107 3.23884 12.9375 3.14955 12.9375C3.06622 12.9375 2.99182 12.9048 2.92634 12.8393C2.17634 12.1607 1.68527 11.6607 1.45312 11.3393C1.41146 11.2798 1.39062 11.2113 1.39062 11.1339C1.39062 11.0625 1.41443 10.994 1.46205 10.9286C1.55134 10.8036 1.70313 10.6071 1.91741 10.3393C2.1317 10.0655 2.29241 9.85417 2.39955 9.70536C2.23884 9.40774 2.11682 9.11309 2.03348 8.82143L0.399554 8.58036C0.322173 8.56845 0.259673 8.53274 0.212054 8.47321C0.164435 8.40774 0.140625 8.33631 0.140625 8.25893V6.27679C0.140625 6.20536 0.164435 6.1369 0.212054 6.07143C0.259673 6.00595 0.31622 5.96726 0.381696 5.95536L2.04241 5.70536C2.12574 5.43155 2.24182 5.15774 2.39062 4.88393C2.15253 4.54464 1.83408 4.13393 1.43527 3.65178C1.37574 3.58036 1.34598 3.50893 1.34598 3.4375C1.34598 3.37798 1.37277 3.30952 1.42634 3.23214C1.5811 3.01786 1.87277 2.6994 2.30134 2.27678C2.73586 1.84821 3.0186 1.63393 3.14955 1.63393C3.22693 1.63393 3.30432 1.66369 3.3817 1.72321L4.61384 2.67857C4.87574 2.54167 5.14658 2.42857 5.42634 2.33928C5.52158 1.52976 5.60789 0.97619 5.68527 0.678571C5.72693 0.511904 5.83408 0.428571 6.0067 0.428571H7.98884C8.07217 0.428571 8.1436 0.455357 8.20312 0.508928C8.2686 0.556547 8.30432 0.619047 8.31027 0.696428L8.56027 2.33928C8.85194 2.43452 9.11979 2.54464 9.36384 2.66964L10.6317 1.71428C10.6853 1.66071 10.7567 1.63393 10.846 1.63393C10.9234 1.63393 10.9978 1.66369 11.0692 1.72321C11.8371 2.43155 12.3281 2.9375 12.5424 3.24107C12.5841 3.28869 12.6049 3.35417 12.6049 3.4375C12.6049 3.50893 12.5811 3.57738 12.5335 3.64286C12.4442 3.76786 12.2924 3.96726 12.0781 4.24107C11.8638 4.50893 11.7031 4.71726 11.596 4.86607C11.7507 5.16369 11.8728 5.45536 11.9621 5.74107L13.596 5.99107C13.6734 6.00298 13.7359 6.04167 13.7835 6.10714C13.8311 6.16667 13.8549 6.23512 13.8549 6.3125Z" fill="#24292E"/>
</svg>
